X:68
T:Conlagh's Big Day
T:Conl\~A{\textexclamdown}gh's Big Day
R:reel
M:4/4
L:1/8
K:Bmin
|:zEFA|Bdef dBBA|~F3E EDEF|D2AD cDGD|edef dBBA|
ABef dBBA|~F3E EDEF|AG~G2 FBAF|GFD2:|
zAde|fe (3eee dec2-|cABd edef|aA (3AAA ABB2-|BdcA ABde|
~f3e dec2-|cABd edcd|~G3B deBA|BA (3AAA (3Bcd eg|
~f3e dec2-|cABd edef|aA (3AAA ABB2-|BdcA ABde|
~f3e dec2-|cABd edcd|~G3B deBA|(3Bcd ez||
